48x48/apps/scout-app.svg

<svg xmlns="http://www.w3.org/2000/svg" width="48" height="48" version="1.1">
 <path style="opacity:0.2" d="M 24,8.9985112 C 22.976029,9.0041592 21.992889,9.1082661 20.986328,9.3090581 13.564739,10.751889 7.5317217,15.514795 9.3144531,23.271949 c 0.8768329,3.81652 3.0094249,6.267377 3.8281249,8.703124 2.170282,6.453952 1.938288,9.768684 6.09961,11.201172 1.673795,0.572136 3.025889,0.846621 4.757812,0.822266 1.731923,0.02435 3.084017,-0.25013 4.757812,-0.822266 4.161322,-1.432488 3.929328,-4.74722 6.09961,-11.201172 0.8187,-2.435747 2.951292,-4.886604 3.828125,-8.703124 C 40.468278,15.514795 34.435261,10.751889 27.013672,9.3090581 26.007111,9.1082661 25.023971,9.0041612 24,8.9985112 Z"/>
 <path style="fill:#d7cec7" d="M 24,8 C 22.976029,8.005648 21.992889,8.1097549 20.986328,8.3105469 13.564739,9.7533775 8.3312686,14.516284 10.114,22.273438 c 0.876833,3.81652 2.209878,6.267377 3.028578,8.703124 2.170282,6.453952 1.938288,9.768684 6.09961,11.201172 C 20.915983,42.74987 22.268077,43.024355 24,43 c 1.731923,0.02435 3.084017,-0.25013 4.757812,-0.822266 4.161322,-1.432488 3.929328,-4.74722 6.09961,-11.201172 0.8187,-2.435747 1.651745,-4.886604 2.528578,-8.703124 C 39.168731,14.516284 34.435261,9.7533775 27.013672,8.3105469 26.007111,8.1097549 25.023971,8.00565 24,8 Z"/>
 <path style="fill:#de8c4a" d="m 26.974609,8.3046875 a 17.095813,18.249995 0 0 1 0.03906,0.00586 c 6.957743,1.3526531 12.695152,5.6227205 11.916018,12.5429685 -0.05343,0.461946 -0.133487,0.93258 -0.24414,1.414062 -0.0083,0.03607 -0.01892,0.06769 -0.02734,0.103516 -0.87949,3.709962 -2.930301,6.128239 -3.763672,8.511718 C 29.446676,29.116418 25,23.56363 25,16.523438 c -0.01083,-2.691102 0.799128,-5.773334 1.974609,-8.2187505 z"/>
 <path style="fill:#de8c4a" d="m 21.025391,8.3046875 a 17.095813,18.249995 0 0 0 -0.03906,0.00586 C 14.028588,9.6632006 8.2911789,13.933268 9.0703125,20.853516 c 0.053429,0.461946 0.1334876,0.93258 0.2441406,1.414062 0.00829,0.03607 0.018923,0.06769 0.027344,0.103516 0.8794899,3.709962 2.9303009,6.128239 3.7636719,8.511718 C 18.553324,29.116418 23,23.56363 23,16.523438 23.010834,13.832336 22.200872,10.750104 21.025391,8.3046875 Z"/>
 <path style="fill:#f4f4f7;opacity:0.2" d="M 24 8 C 22.976029 8.005648 21.992889 8.1097549 20.986328 8.3105469 C 14.291422 9.612103 8.7481792 13.623996 9.03125 20.089844 C 9.3323951 14.208936 14.642821 10.541835 20.986328 9.3085938 C 21.992889 9.1078018 22.976029 9.0036949 24 8.9980469 C 25.023971 9.0036969 26.007111 9.1078018 27.013672 9.3085938 C 33.357179 10.541835 38.667605 14.208936 38.96875 20.089844 C 39.251821 13.623996 33.708578 9.612103 27.013672 8.3105469 C 26.007111 8.1097549 25.023971 8.00565 24 8 z"/>
 <path style="fill:#17191e" d="M 23.265625,33 C 22.566402,33 22,33.676483 22,34.511719 22,35.355554 23.302752,37 24,37 24.697248,37 26,35.355554 26,34.511719 26,33.676483 25.433598,33 24.734375,33 L 24,33 23.265625,33 Z"/>
 <circle style="opacity:0.2" cx="16.5" cy="24.5" r="2.5"/>
 <circle style="fill:#17191e" cx="16.5" cy="23.5" r="2.5"/>
 <circle style="fill:#f4f4f7" cx="16" cy="23" r="1"/>
 <path style="fill:#d86f6f" d="m 26,41 c 0,1.104569 -0.895431,2 -2,2 -1.104569,0 -2,-0.895431 -2,-2 0,-0.238011 0.04158,-0.466311 0.117861,-0.678034 0.277741,-0.770851 0.974722,-0.341374 1.841281,-0.341374 0.865643,0 1.643697,-0.430641 1.922116,0.338932 C 25.958104,40.531933 26,40.761074 26,41 Z"/>
 <path style="fill:none;stroke:#79431b;stroke-linecap:round;stroke-linejoin:round" d="m 19,38.5 c 0,0 1.338412,1.691185 2.5,1.999661 0.720386,0.191309 2.5,-1 2.5,-1 0,0 1.779614,1.191309 2.5,1 C 27.661588,40.191185 29,38.5 29,38.5"/>
 <path style="opacity:0.2" d="m 17.863484,11.752634 c 0,0 3.988135,-4.0085253 1.066784,-5.149421 C 15.657848,5.325212 6.9132616,6.1324631 3.8632353,8.4631499 2.6989881,9.3289471 2.9697996,10.079972 3.2117626,11.105792 4.049087,14.654393 6.2200045,23.705413 6.6458544,23.991118 7.1759419,24.346758 17.863484,11.752634 17.863484,11.752634 Z"/>
 <path style="fill:#86522b" d="m 17.863484,10.754123 c 0,0 3.988135,-4.0085255 1.066784,-5.1494212 C 15.657848,4.3267008 6.9132616,5.1339519 3.8632353,7.4646387 2.6989881,8.3304359 2.9697996,9.0814603 3.2117626,10.107281 4.049087,13.655882 6.2200045,22.706902 6.6458544,22.992607 7.1759419,23.348247 17.863484,10.754123 17.863484,10.754123 Z"/>
 <path style="opacity:0.2" d="m 30.136516,11.752634 c 0,0 -3.988135,-4.0085253 -1.066784,-5.149421 3.27242,-1.278001 12.017006,-0.4707499 15.067033,1.8599369 1.164247,0.8657972 0.893435,1.6168221 0.651472,2.6426421 -0.837324,3.548601 -3.008242,12.599621 -3.434092,12.885326 -0.530087,0.35564 -11.217629,-12.238484 -11.217629,-12.238484 z"/>
 <path style="fill:#86522b" d="m 30.136516,10.754123 c 0,0 -3.988135,-4.0085255 -1.066784,-5.1494212 3.27242,-1.278001 12.017006,-0.4707499 15.067033,1.8599369 1.164247,0.8657972 0.893435,1.6168216 0.651472,2.6426423 -0.837324,3.548601 -3.008242,12.599621 -3.434092,12.885326 -0.530087,0.35564 -11.217629,-12.238484 -11.217629,-12.238484 z"/>
 <circle style="opacity:0.2" cx="31.5" cy="24.5" r="2.5"/>
 <circle style="fill:#17191e" cx="31.5" cy="23.5" r="2.5"/>
 <circle style="fill:#f4f4f7" cx="31" cy="23" r="1"/>
 <path style="fill:#f4f4f7;opacity:0.1" d="M 13.529297 5.0175781 C 9.9004069 5.146911 5.7695477 6.0081645 3.8632812 7.4648438 C 2.9531622 8.1416575 2.9238896 8.7519701 3.0683594 9.4746094 C 3.1683693 9.1397611 3.3971481 8.8114856 3.8632812 8.4648438 C 6.9133076 6.1341569 15.657268 5.3274678 18.929688 6.6054688 C 19.493205 6.8255432 19.796283 7.1529853 19.923828 7.5371094 C 20.116336 6.7402488 19.940841 6.0003616 18.929688 5.6054688 C 17.70253 5.1262184 15.706631 4.9399784 13.529297 5.0175781 z"/>
 <path style="fill:#f4f4f7;opacity:0.1" d="M 34.470703 5.0175781 C 32.293369 4.9399784 30.29747 5.1262184 29.070312 5.6054688 C 28.059159 6.0003616 27.883664 6.7402488 28.076172 7.5371094 C 28.203717 7.1529853 28.506795 6.8255432 29.070312 6.6054688 C 32.342732 5.3274678 41.086692 6.1341569 44.136719 8.4648438 C 44.602852 8.8114856 44.831631 9.1397611 44.931641 9.4746094 C 45.076111 8.7519701 45.046838 8.1416575 44.136719 7.4648438 C 42.230452 6.0081645 38.099593 5.146911 34.470703 5.0175781 z"/>
</svg>

<svg xmlns="http://www.w3.org/2000/svg" width="48" height="48"><path style="opacity:.2" d="M24 8.999c-1.024.005-2.007.11-3.014.31-7.421 1.443-13.454 6.206-11.672 13.963.877 3.816 3.01 6.267 3.829 8.703 2.17 6.454 1.938 9.769 6.1 11.201 1.673.572 3.025.847 4.757.823 1.732.024 3.084-.25 4.758-.823 4.161-1.432 3.93-4.747 6.1-11.2.818-2.437 2.95-4.888 3.828-8.704 1.782-7.757-4.25-12.52-11.672-13.963-1.007-.2-1.99-.305-3.014-.31z"/><path style="fill:#d7cec7" d="M24 8c-1.024.006-2.007.11-3.014.31-7.421 1.443-12.655 6.206-10.872 13.963.877 3.817 2.21 6.268 3.029 8.704 2.17 6.454 1.938 9.768 6.1 11.2 1.673.573 3.025.847 4.757.823 1.732.024 3.084-.25 4.758-.822 4.161-1.433 3.93-4.747 6.1-11.201.818-2.436 1.651-4.887 2.528-8.704 1.783-7.757-2.95-12.52-10.372-13.962C26.007 8.11 25.024 8.006 24 8z"/><path style="fill:#de8c4a" d="M26.975 8.305a17.096 18.25 0 0 1 .039.006c6.957 1.352 12.695 5.622 11.916 12.543-.054.461-.134.932-.244 1.414-.009.036-.02.067-.028.103-.88 3.71-2.93 6.128-3.763 8.512C29.447 29.116 25 23.563 25 16.523c-.01-2.69.8-5.773 1.975-8.218zM21.025 8.305a17.096 18.25 0 0 0-.039.006C14.03 9.663 8.291 13.933 9.07 20.854c.054.461.134.932.244 1.414.009.036.02.067.028.103.88 3.71 2.93 6.128 3.763 8.512C18.553 29.116 23 23.563 23 16.523c.01-2.69-.8-5.773-1.975-8.218z"/><path style="fill:#f4f4f7;opacity:.2" d="M24 8c-1.024.006-2.007.11-3.014.31-6.695 1.302-12.238 5.314-11.955 11.78.301-5.881 5.612-9.548 11.955-10.781 1.007-.201 1.99-.305 3.014-.311 1.024.006 2.007.11 3.014.31 6.343 1.234 11.654 4.9 11.955 10.782.283-6.466-5.26-10.478-11.955-11.78-1.007-.2-1.99-.304-3.014-.31z"/><path style="fill:#17191e" d="M23.266 33c-.7 0-1.266.676-1.266 1.512C22 35.356 23.303 37 24 37c.697 0 2-1.644 2-2.488 0-.836-.566-1.512-1.266-1.512h-1.468z"/><circle style="opacity:.2" cx="16.5" cy="24.5" r="2.5"/><circle style="fill:#17191e" cx="16.5" cy="23.5" r="2.5"/><circle style="fill:#f4f4f7" cx="16" cy="23" r="1"/><path style="fill:#d86f6f" d="M26 41a2 2 0 1 1-3.882-.678c.278-.77.975-.341 1.841-.341s1.644-.431 1.922.339c.077.212.119.441.119.68z"/><path style="fill:none;stroke:#79431b;stroke-linecap:round;stroke-linejoin:round" d="M19 38.5s1.338 1.691 2.5 2c.72.191 2.5-1 2.5-1s1.78 1.191 2.5 1c1.162-.309 2.5-2 2.5-2"/><path style="opacity:.2" d="M17.863 11.753s3.989-4.009 1.067-5.15c-3.272-1.278-12.017-.47-15.067 1.86-1.164.866-.893 1.617-.651 2.643.837 3.548 3.008 12.6 3.434 12.885.53.356 11.217-12.238 11.217-12.238z"/><path style="fill:#86522b" d="M17.863 10.754s3.989-4.008 1.067-5.15c-3.272-1.277-12.017-.47-15.067 1.86-1.164.866-.893 1.617-.651 2.643.837 3.549 3.008 12.6 3.434 12.886.53.355 11.217-12.239 11.217-12.239z"/><path style="opacity:.2" d="M30.137 11.753s-3.989-4.009-1.067-5.15c3.272-1.278 12.017-.47 15.067 1.86 1.164.866.893 1.617.651 2.643-.837 3.548-3.008 12.6-3.434 12.885-.53.356-11.217-12.238-11.217-12.238z"/><path style="fill:#86522b" d="M30.137 10.754s-3.989-4.008-1.067-5.15c3.272-1.277 12.017-.47 15.067 1.86 1.164.866.893 1.617.651 2.643-.837 3.549-3.008 12.6-3.434 12.886-.53.355-11.217-12.239-11.217-12.239z"/><circle style="opacity:.2" cx="31.5" cy="24.5" r="2.5"/><circle style="fill:#17191e" cx="31.5" cy="23.5" r="2.5"/><circle style="fill:#f4f4f7" cx="31" cy="23" r="1"/><path style="fill:#f4f4f7;opacity:.1" d="M13.53 5.018c-3.63.129-7.76.99-9.667 2.447-.91.677-.94 1.287-.795 2.01.1-.335.33-.664.795-1.01 3.05-2.33 11.794-3.138 15.067-1.86.563.22.866.548.994.932.192-.797.017-1.537-.994-1.932-1.227-.479-3.223-.665-5.4-.587zM34.47 5.018c-2.177-.078-4.173.108-5.4.587-1.01.395-1.186 1.135-.994 1.932.128-.384.43-.711.994-.932 3.273-1.278 12.017-.47 15.067 1.86.466.346.695.675.795 1.01.144-.723.115-1.333-.795-2.01C42.23 6.008 38.1 5.147 34.47 5.018z"/></svg>
